X:1
T:Title
%%score [ 1 2 3 4 ]
L:1/8
Q:1/4=96
M:4/4
K:G
V:1 treble nm="Cantus"
V:2 treble nm="Altus"
V:3 treble-8 nm="Tenor"
V:4 bass nm="Bassus"
V:1
 d4 d4 | B2 d4 cB | A2 d3 e f2 | g2 d2 d4 | G4 z4 | z6 d2 | d4 G2 g2- | gf e2 d2 B2 | e3 d cA d2- | %9
w: Vi- de-|runt o- * *|* mnes _ _|fi- nes ter-|ræ,|vi-|de- runt o-|* * * * mnes|fi- * * * *|
 d^c/B/ c2 d4 | z d d2 B4 | z3 g g2 d2 | e2 e2 d3 c | B2 A3 G G2- | G2 FE F4 | G8- | G8 | z8 | %18
w: * * * * nes|vi- de- runt,|vi- de- runt|o- mnes fi- *|* nes _ _|_ ter- * *|ræ,|_||
 d2 d2 GABc | d2 d2 e4 | d2 e3 dcB | cA d4 ^c2 | d8 | z8 | z8 | z8 | z8 | z4 d2 d2 | GABc d2 B2 | %29
w: sa- lu- ta- * * *|* re De-|i nos- * * *||tri,|||||sa- lu-|ta- * * * * *|
 e4 d2 e2- | e2 d4 ^c2 | d8 | z8 | z4 d2 d2 | e4 d4 | z4 B2 B2 | c4 B4 | z4 A2 A2 | B3 A G2 c2- | %39
w: * re De-|* i nos-|tri,||sa- lu-|ta- re,|sa- lu-|ta- re,|sa- lu-|ta- * * *|
 cB A4 d2- | dcBA G2 c2- | cB A4 G2 | G2 FE F4 | G8 ||[M:3/4] d2 g2 e2 | f6 | z6 | z6 | d2 B2 c2 | %49
w: * * * re|_ _ _ _ _ De-|* * * i|nos- * * *|tri.|Al- le- lu-|ja,|||Al- le- lu-|
 d3 c BA | B2 c2 A2 | B6 | A2 F2 G2 | AD d3 c | B2 A4 ||[M:4/4] G2 GA BcdB | c2 c2 B2 e2- | %57
w: ja, _ _ _|Al- le- lu-|ja,|Al- le- lu-|ja, _ _ Al-|le- lu-|ja, Al- * * * * *|* le- lu- ja,|
 e2 d4 cB | cGcd e4 | d8 |] %60
w: _ Al- le- *|lu- * * * *|ja.|
V:2
 z4 G4 | G4 E2 G2- | G2 FE FG A2 | B2 B,3 CDC/D/ | E4 D2 G2- | GF/E/ F2 G4 | z6 G2 | G4 D2 G2- | %8
w: Vi-|de- runt o-||mnes fi- * * * *|* nes ter-|* * * * ræ,|vi-|de- runt o-|
 GF E4 A2 | A3 G FE F2 | F2 F2 G4 | F2 G3 A B2 | z2 G3 FBA | G2 D4 D2 | D8 | D4 D2 D2 | %16
w: * * * mnes|fi- * * * *|nes ter- *|* ræ, _ _|o- * * *|mnes fi- nes|ter-|ræ sa- lu-|
 G,A,B,C D2 G2- | G2 F2 E4 | B,4 G2 G2 | D4 G4 | G3 F E2 E2 | A6 G2 | F4 F2 F2 | DEFG A2 F2 | %24
w: ta- * * * * *||re, sa- lu-|ta- re|De- * * i|nos- *|tri, sa- lu-|ta- * * * * re|
 B4 A2 B2- | BAGF GE A2- | A2 G4 F2 | G8 | z4 D2 D2 | G4 F2 G2- | G2 F2 E4 | F4 G2 G2 | %32
w: De- i nos-|||tri,|sa- lu-|ta- re De-|* i nos-|tri, sa- lu-|
 DEFG A2 D2 | E4 D2 G2- | G2 FE B2 G2- | G2 F2 G4 | E6 E2 | C3 B, A,4 | D4 E4 | E2 F4 F2 | %40
w: ta- * * * * re|De- i nos-||* * tri,|sa- lu-|ta- * *|re De-|i nos- tri,|
 G2 D2 E4- | E2 E2 D4 | D4 D4 | D8 ||[M:3/4] B2 B2 A2 | A6 | B2 B2 A2 | A6 | F2 G2 E2 | F6 | %50
w: sa- lu- ta-|* re De-|i nos-|tri.|Al- le- lu-|ja,|Al- le- lu-|ja,|Al- le- lu-|ja,|
 E2 E2 D2 | D6 | A,2 A,2 B,2 | A,4 B,2 | D3 C A,2 ||[M:4/4] B,2 DCB,A, B,2 | E2 E2 D2 G2- | %57
w: Al- le- lu-|ja,|Al- le- lu-|ja, Al-|le- * lu-|ja, Al- * * * *|le- lu- ja, Al-|
 G2 G2 G4- | G8 | G8 |] %60
w: * le- lu-||ja.|
V:3
 z8 | z8 | d4 d4 | B2 d3 cBA | B2 B4 AG | A2 A2 B3 c | d4 e2 e2- | ed c2 B2 B2- | B2 c4 =f2 | %9
w: ||Vi- de-|runt o- * * *|* mnes fi- *|* nes ter- *|* ræ, o-|* * * * mnes|_ fi- nes|
 e4 d2 z d | d2 B3 c d2 | d2 B4 B2 | c4 d2 B2- | Bcdc B2 B2 | A8 | B4 B2 B2 | EFGA B3 A/B/ | %17
w: ter- ræ, vi-|de- runt, _ _|vi- de- runt|o- mnes fi-|* * * * * nes|ter-|ræ sa- lu-|ta- * * * * * *|
 ^c2 d4 c2 | d4 e2 e2 | BcdB c4 | B4 c4- | c2 =f2 e4 | d4 A2 A2 | B3 A/G/ F2 A2 | G4 F4 | G6 c2 | %26
w: |re, sa- lu-|ta- * * * *|re De-|* i nos-|tri, sa- lu-|ta- * * * re|De- i|nos- *|
 B4 A4 | B8- | B4 B2 B2 | EFGA B2 G2 | A2 D2 A4- | A4 B3 A/G/ | F2 d2 c2 B2- | B2 A2 B4 | %34
w: |tri,|_ sa- lu-|ta- * * * * re|De- i nos-|||* * tri,|
 c2 c2 B4 | A4 G2 G2 | A4 G3 F | E4 F2 F2 | G3 F E2 A2- | AGFE F2 B2- | BAGF E2 A2- | AB c2 B4 | %42
w: sa- lu- ta-|re De- i|nos- tri, _|_ sa- lu-|ta- * * *|* * * * * re|_ _ _ _ _ De-|* * * i|
 A8 | B8 ||[M:3/4] g2 e2 A2 | d6 | d2 g2 e2 | f6 | d2 e2 c2 | B6 | G2 G2 F2 | G6 | E2 F2 D2 | %53
w: nos-|tri.|Al- le- lu-|ja,|Al- le- lu-|ja,|Al- le- lu-|ja,|Al- le- lu-|ja,|Al- le- lu-|
 F4 F2 | G4 F2 ||[M:4/4] GABc d2 G2- | G2 G2 B3 A | Bc d2 e4- | e2 e2 e2 c2- | c2 BA B4 |] %60
w: ja, Al-|le- lu-|ja, _ _ _ _ Al-|* le- lu- *|* * * ja,|_ Al- le- lu-|* * * ja.|
V:4
 z8 | z8 | z8 | G,4 G,4 | E,2 G,4 E,2 | D,4 G,3 A, | B,4 C4 | C,4 G,3 F, | E,2 A,4 D,2 | %9
w: |||Vi- de-|runt o- mnes|fi- nes _|_ ter-|ræ, o- *|mnes fi- nes|
 A,2 A,,2 D,4 | z4 z G, G,2 | D,2 E,3 F, G,2 | C,2 C2 B,2 G,2- | G,2 F,2 G,2 G,,2 | D,8 | G,,8 | %16
w: ter- * ræ,|vi- de-|runt o- * *||* mnes fi- nes|ter-|ræ|
 z8 | z8 | z8 | G,2 G,2 C,D,E,F, | G,2 G,2 A,3 G, | =F,2 D,2 A,4 | D,8 | z4 D,2 D,2 | %24
w: |||sa- lu- ta- * * *|* re De- *|* i nos-|tri,|sa- lu-|
 G,,A,,B,,C, D,2 D,2 | E,3 D, C,2 A,,2 | B,,3 C, D,4 | G,,8- | G,,8 | z8 | z8 | %31
w: ta- * * * * re|De- * * i|nos- * *|tri,|_|||
 D,2 D,2 G,,A,,B,,C, | D,3 C,/B,,/ A,,2 B,,2 | C,4 B,,4 | z4 G,2 G,2 | D,4 E,4 | z4 E,2 E,2 | %37
w: sa- lu- ta- * * *|* * * * re|De- i|sa- lu-|ta- re,|sa- lu-|
 A,,4 D,3 C, | B,,4 C,3 B,, | A,,2 D,3 C,B,,A,, | G,,4 C,3 B,, | A,,4 B,,3 C, | D,8 | G,,8 || %44
w: ta- * *||* re _ _ _|_ De- *|i nos- *||tri.|
[M:3/4] z6 | z6 | G,2 E,2 A,2 | D,6 | z6 | z6 | E,2 C,2 D,2 | G,,4 G,2 | C,2 D,2 G,,2 | %53
w: ||Al- le- lu-|ja,|||Al- le- lu-|ja, Al-|le- lu- ja,|
 D,3 C, B,,2 | G,,2 D,4 ||[M:4/4] G,,2 G,4 G,2 | C,4 G,2 E,2- | E,2 B,,2 C,4- | C,2 C,2 C,4 | %59
w: Al- * *|le- lu-|ja, Al- le-|lu- ja, Al-||* le- lu-|
 G,,8 |] %60
w: ja.|

